site/components/footer/SVG/facebook.svg

<?xml version="1.0" encoding="UTF-8" standalone="no"?>
<svg width="20px" height="20px" viewBox="0 0 20 20" version="1.1" xmlns="http://www.w3.org/2000/svg" xmlns:xlink="http://www.w3.org/1999/xlink">
    <!-- Generator: sketchtool 39.1 (31720) - http://www.bohemiancoding.com/sketch -->
    <title>271BFFA4-E66B-4E93-A918-ACA52B382EBB</title>
    <desc>Created with sketchtool.</desc>
    <defs>
        <polygon id="path-1" points="7.49063656e-06 19.9921348 19.9920674 19.9921348 19.9920674 2.99625469e-05 7.49063656e-06 2.99625469e-05"></polygon>
    </defs>
    <g id="Symbols" stroke="none" stroke-width="1" fill="none" fill-rule="evenodd">
        <g id="Footer" transform="translate(-565.000000, -163.000000)">
            <g id="facebook" transform="translate(565.000000, 163.000000)">
                <g>
                    <mask id="mask-2" fill="white">
                        <use xlink:href="#path-1"></use>
                    </mask>
                    <g id="Clip-2"></g>
                    <path d="M18.8886966,2.99625469e-05 L1.10337828,2.99625469e-05 C0.493940075,2.99625469e-05 7.49063656e-06,0.493962547 7.49063656e-06,1.10340075 L7.49063656e-06,18.8887191 C7.49063656e-06,19.4980824 0.493940075,19.9921648 1.10337828,19.9921648 L10.6784345,19.9921648 L10.6784345,12.2501423 L8.0730412,12.2501423 L8.0730412,9.23291386 L10.6784345,9.23291386 L10.6784345,7.00782022 C10.6784345,4.42564794 12.2555131,3.01958052 14.5590337,3.01958052 C15.6624794,3.01958052 16.610794,3.1016779 16.8871236,3.13838202 L16.8871236,5.8369588 L15.2895206,5.83770787 C14.0367865,5.83770787 13.7941648,6.43298876 13.7941648,7.30654682 L13.7941648,9.23291386 L16.7819551,9.23291386 L16.3929663,12.2501423 L13.7941648,12.2501423 L13.7941648,19.9921648 L18.8886966,19.9921648 C19.4980599,19.9921648 19.9920674,19.4980824 19.9920674,18.8887191 L19.9920674,1.10340075 C19.9920674,0.493962547 19.4980599,2.99625469e-05 18.8886966,2.99625469e-05" id="Fill-1" fill="#FEFEFE" mask="url(#mask-2)"></path>
                </g>
            </g>
        </g>
    </g>
</svg>

<svg width="20" height="20" viewBox="0 0 20 20" xmlns="http://www.w3.org/2000/svg" xmlns:xlink="http://www.w3.org/1999/xlink"><defs><path id="a" d="M0 19.992h19.992V0H0z"/></defs><g fill="none" fill-rule="evenodd"><mask id="b" fill="#fff"><use xlink:href="#a"/></mask><path d="M18.889 0H1.103C.493 0 0 .494 0 1.103V18.89c0 .61.494 1.103 1.103 1.103h9.575V12.25H8.073V9.233h2.605V7.008c0-2.582 1.578-3.988 3.881-3.988 1.103 0 2.052.082 2.328.118v2.699H15.29c-1.253 0-1.496.596-1.496 1.47v1.926h2.988l-.389 3.017h-2.599v7.742h5.095c.61 0 1.103-.494 1.103-1.103V1.103C19.992.494 19.498 0 18.89 0" fill="#FEFEFE" mask="url(#b)"/></g></svg>
